X:138
T:Lady Ann Montgomery
M:4/4
L:1/8
R:Reel
K:D
"D"FADA FADA|FAdA "G"BAdA|"D"FADF E3 F|"G"DB,A,B, "Asus4"D3 D|
"D"FADA FADA|FAdA "G"BABc|"D"dBAF "G"E3 F|"Asus4"DB,A,B, D4:|:
"D(Bmi)"f3 f fede|fedB ABde|"G"f3 f fede|"Emi"f(a a)f "A"(3efe) de|
"D(Bmi)"f3 f fede|fedB ABde|"G"fded BdAd|1"Asus4"egfe d3 e:|2 "Asus4"egf
e d4||
